X: 36670
T: Shaskeen, The
R: reel
M: 4/4
K: Gmajor
|:DG~G2 AcFA|dfed cAFA|~B3G ~A3F|G2AG FGEG|
[1 DG~G2 ABcA|dfed cAFe|~f3d edcA|AGFA G4:|
[2 DG~G2 ABcA|d~B3 c~A3|~f3d edcA|AGFA G4||
d~g3 d~g3|a2ag fedA|~B3G ~A3F|G2AG FGEG|
dggf ~g3|a2ag fede|~f3d edcA|AGFA G4|
d~g3 d~g3|a2ag fedA|~B3G ~A3F|G2AG FDD2|
B~G3 A~F3|d~B3 cAAe|~f3d edcA|AGFA G4||

